X:49
T:Liberty for the Sailors
Z:Jack Campin, http://www.campin.me.uk/
S:Northumbrian Minstrelsy
N:the words are not printed as an underlay
N:and the tune doesn't quite fit
M:6/8
L:1/8
K:D
g|f2e f2e|dcd A2=c|BGB AFA|GEG F2
D|f2e f2e|dBd A2=c|BAG F2D|E3  D2 |
F|DFA AFD|DFA B2 A|Ace ecA|Ace f2
g|afd BdB|ecA AB`c|dBG F2D|E3  D2|]

